X:1
T:James Gibb editions
T:Lapidaverunt Stephanum - Asola
T:#
%%score [ 1 2 3 4 ]
L:1/8
Q:1/4=90
M:4/4
K:Bb
V:1 treble nm="Soprano" snm="S"
V:2 treble nm="Alto" snm="A"
V:3 treble-8 nm="Tenor" snm="T"
V:4 bass nm="Bass" snm="B"
V:1
 z8 |"^Lapidaverunt Stephanum" z8 | G4 F2 G2 | =E4 D2 (B2- | %4
w: ||La- pi- da-|ve- runt Ste\-|
"^Matteo Asola\n(1532-1609)" BA G3 F/=E/ F2 | =E2 A4) G2 |[M:4/4] A4 z4 | z2 A4 A2 | G4 F2 B2- | %9
w: |* * pha-|num|in- vo-|can- tem et|
 B2 A2 (G3 A | B2 A3 G G2- | G2 ^F2) G4 | z8 | z4 z2 G2- | G2 G2 A4 | F4 =E4 | A6 A2 | A4 A4 | %18
w: * di- cen\- *||* * tem:||Do\-|* mi- ne|Je- su,|ac- ci-|pe spi-|
 B2 B2 A4 | A4 z2 A2- | AA A2 F2 D2 | =E3 E D4 | z8 | A8 | ^F4 G4 | z2 A2 B4 | =B4 c4 | G4 A4- | %28
w: ri- tum me-|um. Po\-|* si- tis au- tem|ge- ni- bus||cla-|ma- vit,|cla- ma-|vit vo-|ce ma\-|
 A2 c2 (B4- | A4) (^F3 G | A4 z4 | z8 | z4 z2 A2- | A2 A2 ^F2 F2 | G4 =E2 E2 | F4 D2 B2- | %36
w: * gna di\-|* cens: *|||Do\-|* mi- ne, ne-|sta- tu- as|il- lis *|
 BAGF G2) =E2 | (D2 G4 ^F2) | G2 B4 B2 | A2 F2 G4 | A8 | z2 G2 A4 | B4 A2 (G2- | GF=ED E4) | %44
w: * * * * * pec-|ca\- * *|tum. Et cum|hoc di- xis-|set,|et cum|hoc di- xis\-||
 D4 A4- | A2 A2 B4 | A4 G4- | G2 B4 B2 | A4 z2 G2- | G2 G2 G4 | G6[Q:1/4=89] A2 | %51
w: set, ob\-|* dor- mi-|vit in|* Do- mi-|no, ob\-|* dor- mi-|vit in|
[Q:1/4=88] B2[Q:1/4=86] (G4[Q:1/4=85] ^F2 |[Q:1/4=82] G8) |[Q:1/4=78] G8- |[Q:1/4=77] G8 |] %55
w: Do- mi\- *||no.||
V:2
 z8 | z8 | z4 z2 D2- | D2 C2 D4 | B,4 A,2 D2- | D2 C2 D4 |[M:4/4] z2 A4 A2 | F4 =E4 | (D3 =E F4- | %9
w: ||La\-|* pi- da-|ve- runt Ste\-|* pha- num|in- vo-|can- tem|et * *|
 F4) D4- | D4 (B,3 C | D4) D4 | G4 =E2 E2 | F4 D4 | =E4 C2 C2 | D4 C2 =E2- | E2 F2 =E4 | ^F6 F2 | %18
w: * di\-|* cen\- *|* tem:|Do- mi- ne|Je- su,|Do- mi- ne|Je- su, ac\-|* ci- pe|spi- ri-|
 G4 (F2 =ED | =E4) ^F4- | F4 z2 A2- | AA A2 F2 D2 | =E3 E D4 | z2 D2 ^C4 | D4 z2 D2 | F4 F2 F2 | %26
w: tum me\- * *|* um.|* Po\-|* si- tis au- tem|ge- ni- bus|cla- ma-|vit, cla-|ma- vit, cla-|
 G4 G2 =E2- | E2 D2 =E4 | A4 G4 | ^F2 A4 A2 | ^F2 F2 G4 | =E2 E2 F4 | D2 (D4 ^C=B, | ^C2) A,4 D2- | %34
w: ma- vit vo\-|* ce ma-|gna di-|cens: Do- mi-|ne, ne- sta-|tu- as il-|lis hoc * *|* pec- ca\-|
 D2 G,2 z2 C2- | C2 D3 D D2 | D6 C2 | B,2 B,2 A,4 | G,4 z4 | z4 z2 G2- | G2 F2 D2 F2 | %41
w: * tum, ne\-|* sta- tu- as|il- lis|hoc pec- ca-|tum.|Et|* cum hoc di-|
 (=E2 G4 ^F2) | G2 D2 C2 (D2- | DC) B,2 A,4 | D4 ^F4- | F2 ^F2 G4 | C6 C2 | (B,G, G4) G2 | %48
w: xis\- * *|set, et cum hoc|* * di- xis-|set, ob\-|* dor- mi-|vit in|Do\- * * mi-|
 ^F4 z2 D2- | D2 D2 D4 | (=E3 F G2) F2 | D6 D2 | D4 =B,4 | E6 E2 | D8 |] %55
w: no, ob\-|* dor- mi-|vit * * in|Do- mi-|no, in|Do- mi-|no.|
V:3
 d4 c2 d2 | B4 A2 d2- | d2 c2 d4 | z2 a2 g2 f2 | g2 d2 z2 (a2- | ag f3 =e d2- | %6
w: La- pi- da-|ve- runt Ste\-|* pha- num,|la- pi- da-|ve- runt Ste\-||
[M:4/4][K:treble-8] d2 ^c2 d4 | z8 | z2 d4 d2 | c4 B2 B2- | B2 F2 (G4- | A4) G2 d2 | =B2 B2 c4 | %13
w: * pha- num||in- vo-|can- tem et|* di- cen\-|* tem: Do-|mi- ne Je-|
 A2 d2 =B2 B2 | c4 A4- | A4 z2 c2- | c2 c2 c4 | d6 d2 | B2 d4 ^c=B | ^c4) d4- | d4 z4 | z8 | %22
w: su, Do- mi- ne|Je- su,|* ac\-|* ci- pe|spi- ri-|tum me\- * *|* um.|||
 z2 a3 a a2 | f2 d2 =e3 e | d2 A2 =B4 | c4 z2 d2 | d4 =e2 g2- | g2 g2 =e4 | f4 d4 | d8 | z8 | z8 | %32
w: Po- si- tis|au- tem ge- ni-|bus cla- ma-|vit, cla-|ma- vit vo\-|* ce ma-|gna di-|cens:|||
 z8 | z2 d4 d2 | =B2 B2 c4 | A2 A2 B4 | G2 B4 c2 | d8 | d2 g4 g2 | f2 d2 =e4 | d4 z4 | z2 d4 c2 | %42
w: |Do- mi-|ne, ne- sta-|tu- as il-|lis hoc pec-|ca-|tum Et cum|hoc di- xis-|set,|et cum|
 B2 G2 (A2 B2- | BA d4 ^c2) | d4 d4- | d2 d2 (d3 =e | f4) e4 | d2 d4 d2 | d4 z2 =B2- | B2 =B2 B4 | %50
w: hoc di- xis\- *||set, ob\-|* dor- mi\- *|* vit|in Do- mi-|no, ob\-|* dor- mi-|
 c6 c2 | B4 A4 | G4 d4 | c6 c2 | =B8 |] %55
w: vit in|Do- mi-|no, in|Do- mi-|no.|
V:4
 z8 | G,4 F,2 G,2 | =E,4 D,2 G,2 | G,2 A,2 (B,3 A, | G,F, G,2) D,4 | (A,4 B,3) B, | %6
w: |La- pi- da-|ve- runt, la-|pi- da- ve\- *|* * * runt|Ste\- * pha-|
[M:4/4] A,4 z2 D2- | D2 D2 C4 | B,2 B,4 B,2 | F,4 G,2 G,2- | G,2 D,2 (E,4 | D,4) G,4- | G,4 z4 | %13
w: num in\-|* vo- can-|tem et di-|cen- tem: et|* di- cen\-|* tem:||
 z4 G,4 | =E,2 E,2 F,4 | D,4 A,4- | A,2 A,2 A,4 | D,6 D,2 | G,4 A,4- | A,4 D,4 | z2 D3 D D2 | %21
w: Do-|mi- ne Je-|su, ac\-|* ci- pe|spi- ri-|turn me\-|* um.|Po- si- tis|
 C2 A,2 B,3 B, | A,4 z2 D,2 | D4 A,4 | z2 D,2 G,4 | F,4 B,4 | G,4 C4- | C2 B,2 (A,3 G, | F,4 G,4) | %29
w: au- tem ge- ni-|bus cla-|ma- vit,|cla- ma-|vit vo-|ce ma\-|* gna di\- *||
 D,4 z2 D2- | D2 D2 =B,2 B,2 | C4 A,2 A,2 | B,4 G,2 A,2- | A,2 D,2 D,2 D,2 | G,4 A,2 A,2 | %35
w: cens: Do\-|* mi- ne, ne-|sta- tu- as|il- lis, Do\-|* mi- ne, ne-|sta- tu- as|
 F,4 G,4 | (B,3 A, G,2) C,2 | (G,4 D,4) | G,8 | z8 | z2 D4 D2 | C2 B,2 A,4 | G,4 z4 | z8 | %44
w: il- lis|hoc * * pec-|ca\- *|tum.||Et cum|hoc di- xis-|set,||
 z4 D,4- | D,2 D,2 G,4 | F,4 C,4 | G,6 G,2 | D,4 z2 G,2- | G,2 G,2 G,4 | (C,3 D, =E,2) F,2 | %51
w: ob\-|* dor- mi-|vit in|Do- mi-|no, ob\-|* dor- mi-|vit * * in|
 G,2 G,2 D,4 | G,8 | C,6 C,2 | G,8 |] %55
w: Do- mi- no,|in|Do- mi-|no.|

